svg/300/sharp/texture_minus-fill.svg

<svg xmlns="http://www.w3.org/2000/svg" width="48" height="48" viewBox="0 -960 960 960"><path d="M171.385-140.001h-31.384v-34.23l647.998-645.768h32v33.23L171.385-140.001Zm243.155 0 86.997-86.998v86.998H414.54Zm160.075-73.078v-45.384h285.384v45.384H574.615ZM140.001-414.54v-65.229l340.23-340.23h65.229L140.001-414.54Zm466.078 82.999 213.92-213.919v65.229l-148.691 148.69h-65.229ZM140.001-720.693v-99.306h99.306l-99.306 99.306Z"/></svg>

<svg xmlns="http://www.w3.org/2000/svg" width="48" height="48" viewBox="0 -960 960 960"><path d="M171.39-140H140v-34.23L788-820h32v33.23L171.39-140Zm243.15 0 87-87v87h-87Zm160.07-73.08v-45.38H860v45.38H574.61ZM140-414.54v-65.23L480.23-820h65.23L140-414.54Zm466.08 83L820-545.46v65.23L671.31-331.54h-65.23ZM140-720.69V-820h99.31L140-720.69Z"/></svg>
